public/static/img/assets/overview_bg.svg

<svg width="375" height="290" fill="none" xmlns="http://www.w3.org/2000/svg"><mask id="c" style="mask-type:alpha" maskUnits="userSpaceOnUse" x="0" y="0" width="375" height="290"><path d="M0 0h375v260c0 16.569-13.431 30-30 30H30c-16.569 0-30-13.431-30-30V0Z" fill="url(#a)"/></mask><g filter="url(#b)" mask="url(#c)"><path d="M-61 246h487v14c0 16.569-13.431 30-30 30H-31c-16.569 0-30-13.431-30-30v-14Z" fill="#fff" fill-opacity=".5"/></g><defs><linearGradient id="a" x1="187.5" y1="0" x2="187.5" y2="290" gradientUnits="userSpaceOnUse"><stop stop-color="#171717"/><stop offset="1" stop-color="#272727"/></linearGradient><filter id="b" x="-261" y="46" width="887" height="444" filterUnits="userSpaceOnUse" color-interpolation-filters="sRGB"><feFlood flood-opacity="0" result="BackgroundImageFix"/><feBlend in="SourceGraphic" in2="BackgroundImageFix" result="shape"/><feGaussianBlur stdDeviation="100" result="effect1_foregroundBlur_335_5203"/></filter></defs></svg>

<svg width="375" height="290" viewBox="0 0 375 290" fill="none" xmlns="http://www.w3.org/2000/svg">
<mask id="mask0_335_5203" style="mask-type:alpha" maskUnits="userSpaceOnUse" x="0" y="0" width="375" height="290">
<path d="M0 0H375V260C375 276.569 361.569 290 345 290H30C13.4315 290 0 276.569 0 260V0Z" fill="url(#paint0_linear_335_5203)"/>
</mask>
<g mask="url(#mask0_335_5203)">
<g filter="url(#filter0_f_335_5203)">
<path d="M-61 246H426V260C426 276.569 412.569 290 396 290H-31C-47.5685 290 -61 276.569 -61 260V246Z" fill="white" fill-opacity="0.5"/>
</g>
</g>
<defs>
<filter id="filter0_f_335_5203" x="-261" y="46" width="887" height="444" filterUnits="userSpaceOnUse" color-interpolation-filters="sRGB">
<feFlood flood-opacity="0" result="BackgroundImageFix"/>
<feBlend mode="normal" in="SourceGraphic" in2="BackgroundImageFix" result="shape"/>
<feGaussianBlur stdDeviation="100" result="effect1_foregroundBlur_335_5203"/>
</filter>
<linearGradient id="paint0_linear_335_5203" x1="187.5" y1="0" x2="187.5" y2="290" gradientUnits="userSpaceOnUse">
<stop stop-color="#171717"/>
<stop offset="1" stop-color="#272727"/>
</linearGradient>
</defs>
</svg>
